resources/haticons/SVG/more1.svg

<!-- Generated by IcoMoon.io -->
<svg version="1.1" xmlns="http://www.w3.org/2000/svg" width="24" height="24" viewBox="0 0 24 24">
<title>more1</title>
<path d="M18.984 13.5q0.609 0 1.055-0.422t0.445-1.078-0.445-1.078-1.055-0.422-1.055 0.422-0.445 1.078 0.445 1.078 1.055 0.422zM14.016 13.5q0.609 0 1.055-0.422t0.445-1.078-0.445-1.078-1.055-0.422-1.055 0.422-0.445 1.078 0.445 1.078 1.055 0.422zM9 13.5q0.656 0 1.078-0.422t0.422-1.078-0.422-1.078-1.078-0.422-1.078 0.422-0.422 1.078 0.422 1.078 1.078 0.422zM21.984 3q0.797 0 1.406 0.609t0.609 1.406v13.969q0 0.797-0.609 1.406t-1.406 0.609h-14.906q-1.031 0-1.688-0.891l-5.391-8.109 5.391-8.109q0.656-0.891 1.594-0.891h15z"></path>
</svg>

<svg xmlns="http://www.w3.org/2000/svg" width="24" height="24"><path d="M18.984 13.5q.609 0 1.055-.422T20.484 12t-.445-1.078-1.055-.422-1.055.422T17.484 12t.445 1.078 1.055.422zm-4.968 0q.609 0 1.055-.422T15.516 12t-.445-1.078-1.055-.422-1.055.422T12.516 12t.445 1.078 1.055.422zM9 13.5q.656 0 1.078-.422T10.5 12t-.422-1.078T9 10.5t-1.078.422T7.5 12t.422 1.078T9 13.5zM21.984 3q.797 0 1.406.609t.609 1.406v13.969q0 .797-.609 1.406t-1.406.609H7.078q-1.031 0-1.688-.891l-5.391-8.109L5.39 3.89q.656-.891 1.594-.891h15z"/></svg>
